humanity-icon-theme/Humanity/actions/32/help-contents.svg

<?xml version="1.0" encoding="UTF-8" standalone="no"?>
<!-- Created with Inkscape (http://www.inkscape.org/) -->
<svg
   xmlns:svg="http://www.w3.org/2000/svg"
   xmlns="http://www.w3.org/2000/svg"
   xmlns:xlink="http://www.w3.org/1999/xlink"
   version="1.0"
   width="32"
   height="32"
   id="svg2502">
  <defs
     id="defs2504">
    <linearGradient
       id="linearGradient8838">
      <stop
         id="stop8840"
         style="stop-color:#000000;stop-opacity:1"
         offset="0" />
      <stop
         id="stop8842"
         style="stop-color:#000000;stop-opacity:0"
         offset="1" />
    </linearGradient>
    <radialGradient
       cx="62.625"
       cy="4.625"
       r="10.625"
       fx="62.625"
       fy="4.625"
       id="radialGradient2494"
       xlink:href="#linearGradient8838"
       gradientUnits="userSpaceOnUse"
       gradientTransform="matrix(1.5058824,0,0,0.37647,-78.305888,26.258824)" />
    <linearGradient
       id="linearGradient2490-182-124">
      <stop
         id="stop2788"
         style="stop-color:#1f4b6a;stop-opacity:1"
         offset="0" />
      <stop
         id="stop2790"
         style="stop-color:#4083c2;stop-opacity:1"
         offset="1" />
    </linearGradient>
    <linearGradient
       x1="18.379412"
       y1="44.980297"
       x2="18.379412"
       y2="3.0816143"
       id="linearGradient2491"
       xlink:href="#linearGradient2490-182-124"
       gradientUnits="userSpaceOnUse"
       gradientTransform="matrix(0.7126612,0,0,0.7126613,-1.1038706,-1.1038704)" />
    <linearGradient
       id="linearGradient3242-187-536">
      <stop
         id="stop2778"
         style="stop-color:#8badea;stop-opacity:1"
         offset="0" />
      <stop
         id="stop2780"
         style="stop-color:#6396cd;stop-opacity:1"
         offset="0.26238" />
      <stop
         id="stop2782"
         style="stop-color:#3b7caf;stop-opacity:1"
         offset="0.66093999" />
      <stop
         id="stop2784"
         style="stop-color:#194c70;stop-opacity:1"
         offset="1" />
    </linearGradient>
    <radialGradient
       cx="23.895569"
       cy="3.9900031"
       r="20.397499"
       fx="23.895569"
       fy="3.9900031"
       id="radialGradient2489"
       xlink:href="#linearGradient3242-187-536"
       gradientUnits="userSpaceOnUse"
       gradientTransform="matrix(0,1.7008781,-2.245129,0,24.958071,-40.236051)" />
    <linearGradient
       id="linearGradient4873">
      <stop
         id="stop4875"
         style="stop-color:#ffffff;stop-opacity:1"
         offset="0" />
      <stop
         id="stop4877"
         style="stop-color:#ffffff;stop-opacity:0"
         offset="1" />
    </linearGradient>
    <linearGradient
       x1="63.397362"
       y1="-12.489107"
       x2="63.397362"
       y2="5.4675598"
       id="linearGradient2486"
       xlink:href="#linearGradient4873"
       gradientUnits="userSpaceOnUse"
       gradientTransform="matrix(1.5436509,0,0,1.5436158,-80.015712,21.419381)" />
  </defs>
  <g
     id="layer1">
    <path
       d="M 31.999998,28 C 31.999998,30.209139 24.836553,32 15.999997,32 C 7.1634417,32 -3.2e-06,30.209139 -3.2e-06,28 C -3.2e-06,25.790861 7.1634417,24 15.999997,24 C 24.836553,24 31.999998,25.790861 31.999998,28 L 31.999998,28 z"
       id="path8836"
       style="opacity:0.3;fill:url(#radialGradient2494);fill-opacity:1;fill-rule:evenodd;stroke:none;stroke-width:0.99999988;stroke-linecap:butt;stroke-linejoin:round;marker:none;marker-start:none;marker-mid:none;marker-end:none;stroke-miterlimit:4;stroke-dasharray:none;stroke-dashoffset:0;stroke-opacity:1;visibility:visible;display:inline;overflow:visible" />
    <path
       d="M 16.000001,1.5017975 C 8.0003938,1.5017975 1.5017978,8.0003912 1.5017978,15.999999 C 1.5017978,23.999608 8.0003938,30.498205 16.000001,30.498202 C 23.999606,30.498202 30.49821,23.999608 30.498202,15.999999 C 30.498202,8.0003912 23.999606,1.5017975 16.000001,1.5017975 z"
       id="path2555"
       style="fill:url(#radialGradient2489);fill-opacity:1;stroke:url(#linearGradient2491);stroke-width:1.00365412;stroke-linecap:round;stroke-linejoin:round;stroke-miterlimit:4;stroke-dasharray:none;stroke-dashoffset:0;stroke-opacity:1" />
    <path
       d="M 29.5,15.999522 C 29.5,23.455607 23.455399,29.5 16.000172,29.5 C 8.5442598,29.5 2.5,23.455539 2.5,15.999522 C 2.5,8.5437822 8.5442598,2.5000011 16.000172,2.5000011 C 23.455399,2.5000011 29.5,8.5437822 29.5,15.999522 L 29.5,15.999522 z"
       id="path8655"
       style="opacity:0.4;fill:none;fill-opacity:1;fill-rule:nonzero;stroke:url(#linearGradient2486);stroke-width:1;stroke-miterlimit:4;stroke-dasharray:none;stroke-opacity:1" />
    <path
       d="M 16.682829,19.122662 C 16.633269,17.35359 17.029609,15.636199 18.70098,14.419705 C 20.466375,13.043929 22.166591,11.322646 21.986915,9.2936424 C 21.947682,7.3368512 19.667734,5.8034926 17.211255,5.5830227 C 14.448116,5.2002331 11.104734,6.1468247 10.178824,8.3047296 C 9.7092242,9.3542605 10.144698,11.237243 11.72067,11.237243 C 12.64246,11.237243 13.065842,10.641792 13.135398,10.097093 C 13.188023,9.6849578 13.018821,9.3169252 12.918898,8.9764983 C 12.80504,8.5886042 13.291089,7.8368236 13.820461,7.53052 C 14.262812,7.2745645 14.725626,7.1887389 14.793846,7.1723432 C 16.382455,6.7905594 17.966069,7.6338677 18.626781,8.6602782 C 19.287493,9.6866877 18.56025,11.243552 17.51464,12.757543 C 16.469029,14.271533 15.346903,15.991118 15.351386,17.817598 C 15.351386,18.51294 15.289431,18.749164 15.333452,19.030482 C 15.368623,19.255247 16.112871,19.228085 16.682829,19.122662 z M 15.957837,21.503737 C 14.438877,21.421278 13.387544,23.143235 14.300061,24.240356 C 15.114981,25.451686 17.39983,25.15266 17.791453,23.78095 C 18.198599,22.714269 17.218796,21.485931 15.957838,21.503736 L 15.957837,21.503737 z"
       id="path9053"
       style="font-size:72px;font-style:normal;font-weight:bold;opacity:0.2;fill:#000000;fill-opacity:1;stroke:none;stroke-width:0.75;stroke-linecap:round;stroke-linejoin:round;stroke-miterlimit:4;stroke-dasharray:none;stroke-opacity:1;font-family:Standard Symbols L" />
    <path
       d="M 16.682829,20.122661 C 16.633269,18.35359 17.029609,16.636199 18.70098,15.419705 C 20.466375,14.043929 22.166591,12.322646 21.986915,10.293643 C 21.947682,8.3368507 19.667734,6.8034922 17.211255,6.5830221 C 14.448116,6.2002326 11.104734,7.1468242 10.178824,9.3047291 C 9.7092242,10.354261 10.144698,12.237243 11.72067,12.237243 C 12.64246,12.237243 13.065842,11.641792 13.135398,11.097094 C 13.188023,10.684958 13.018821,10.316925 12.918898,9.9764982 C 12.80504,9.5886037 13.291089,8.8368234 13.820461,8.5305194 C 14.262812,8.274564 14.725626,8.1887385 14.793846,8.1723427 C 16.382455,7.7905589 17.966069,8.6338671 18.626781,9.6602777 C 19.287493,10.686688 18.56025,12.243552 17.51464,13.757543 C 16.469029,15.271533 15.346903,16.991118 15.351386,18.817598 C 15.351386,19.51294 15.289431,19.749164 15.333452,20.030482 C 15.368623,20.255247 16.112871,20.228085 16.682829,20.122661 z M 15.957837,22.503737 C 14.438877,22.421278 13.387544,24.143235 14.300061,25.240356 C 15.114981,26.451686 17.39983,26.15266 17.791453,24.78095 C 18.198599,23.714269 17.218796,22.485931 15.957838,22.503736 L 15.957837,22.503737 z"
       id="path3298"
       style="font-size:72px;font-style:normal;font-weight:bold;fill:#ffffff;fill-opacity:1;stroke:none;stroke-width:0.75;stroke-linecap:round;stroke-linejoin:round;stroke-miterlimit:4;stroke-dasharray:none;stroke-opacity:1;font-family:Standard Symbols L" />
  </g>
</svg>

<?xml version="1.0" encoding="UTF-8" standalone="no"?>
<!-- Created with Inkscape (http://www.inkscape.org/) -->
<svg id="svg2502" xmlns="http://www.w3.org/2000/svg" height="32" width="32" version="1.0" xmlns:xlink="http://www.w3.org/1999/xlink">
 <defs id="defs2504">
  <radialGradient id="radialGradient2494" gradientUnits="userSpaceOnUse" cy="4.625" cx="62.625" gradientTransform="matrix(1.5059 0 0 .37647 -78.306 26.259)" r="10.625">
   <stop id="stop8840" offset="0"/>
   <stop id="stop8842" style="stop-opacity:0" offset="1"/>
  </radialGradient>
  <linearGradient id="linearGradient2491" y2="3.0816" gradientUnits="userSpaceOnUse" x2="18.379" gradientTransform="matrix(.71266 0 0 .71266 -1.1039 -1.1039)" y1="44.98" x1="18.379">
   <stop id="stop2788" style="stop-color:#1f4b6a" offset="0"/>
   <stop id="stop2790" style="stop-color:#4083c2" offset="1"/>
  </linearGradient>
  <radialGradient id="radialGradient2489" gradientUnits="userSpaceOnUse" cy="3.99" cx="23.896" gradientTransform="matrix(0 1.7009 -2.2451 0 24.958 -40.236)" r="20.397">
   <stop id="stop2778" style="stop-color:#8badea" offset="0"/>
   <stop id="stop2780" style="stop-color:#6396cd" offset=".26238"/>
   <stop id="stop2782" style="stop-color:#3b7caf" offset=".66094"/>
   <stop id="stop2784" style="stop-color:#194c70" offset="1"/>
  </radialGradient>
  <linearGradient id="linearGradient2486" y2="5.4676" gradientUnits="userSpaceOnUse" x2="63.397" gradientTransform="matrix(1.5437 0 0 1.5436 -80.016 21.419)" y1="-12.489" x1="63.397">
   <stop id="stop4875" style="stop-color:#fff" offset="0"/>
   <stop id="stop4877" style="stop-color:#fff;stop-opacity:0" offset="1"/>
  </linearGradient>
 </defs>
 <g id="layer1">
  <path id="path8836" style="opacity:.3;fill-rule:evenodd;fill:url(#radialGradient2494)" d="m32 28c0 2.209-7.163 4-16 4-8.8366 0-16-1.791-16-4-0.0000032-2.209 7.1634-4 16-4 8.837 0 16 1.791 16 4z"/>
  <path id="path2555" style="stroke-linejoin:round;stroke:url(#linearGradient2491);stroke-linecap:round;stroke-width:1.0037;fill:url(#radialGradient2489)" d="m16 1.5018c-7.9996 0-14.498 6.4986-14.498 14.498-0.0002 8 6.4984 14.498 14.498 14.498 8 0 14.498-6.498 14.498-14.498 0-7.9996-6.498-14.498-14.498-14.498z"/>
  <path id="path8655" style="opacity:.4;stroke:url(#linearGradient2486);fill:none" d="m29.5 16c0 7.456-6.045 13.5-13.5 13.5-7.4557 0-13.5-6.044-13.5-13.5 0-7.4562 6.0443-13.5 13.5-13.5 7.455 0 13.5 6.0438 13.5 13.5z"/>
  <path id="path9053" style="opacity:.2" d="m16.683 19.123c-0.05-1.769 0.347-3.487 2.018-4.703 1.765-1.376 3.466-3.097 3.286-5.1264-0.039-1.9567-2.319-3.4901-4.776-3.7106-2.763-0.3828-6.106 0.5638-7.032 2.7217-0.4698 1.0496-0.034 2.9323 1.542 2.9323 0.921 0 1.345-0.595 1.414-1.14 0.053-0.412-0.116-0.7801-0.216-1.1205-0.114-0.3879 0.372-1.1397 0.901-1.446 0.443-0.2559 0.906-0.3418 0.974-0.3582 1.588-0.3817 3.172 0.4616 3.833 1.488 0.66 1.0264-0.067 2.5837-1.112 4.0977-1.046 1.514-2.168 3.233-2.164 5.06 0 0.695-0.062 0.931-0.018 1.212 0.036 0.225 0.78 0.198 1.35 0.093zm-0.725 2.381c-1.519-0.083-2.57 1.639-1.658 2.736 0.815 1.212 3.1 0.913 3.491-0.459 0.408-1.067-0.572-2.295-1.833-2.277z"/>
  <path id="path3298" style="fill:#fff" d="m16.683 20.123c-0.05-1.769 0.347-3.487 2.018-4.703 1.765-1.376 3.466-3.097 3.286-5.126-0.039-1.9571-2.319-3.4905-4.776-3.711-2.763-0.3828-6.106 0.5638-7.032 2.7217-0.4698 1.0493-0.034 2.9323 1.542 2.9323 0.921 0 1.345-0.595 1.414-1.14 0.053-0.412-0.116-0.78-0.216-1.1205-0.114-0.3879 0.372-1.1397 0.901-1.446 0.443-0.2559 0.906-0.3418 0.974-0.3582 1.588-0.3817 3.172 0.4616 3.833 1.488 0.66 1.0267-0.067 2.5837-1.112 4.0977-1.046 1.514-2.168 3.233-2.164 5.06 0 0.695-0.062 0.931-0.018 1.212 0.036 0.225 0.78 0.198 1.35 0.093zm-0.725 2.381c-1.519-0.083-2.57 1.639-1.658 2.736 0.815 1.212 3.1 0.913 3.491-0.459 0.408-1.067-0.572-2.295-1.833-2.277z"/>
 </g>
</svg>
